X: 29
T: B\"ohmisher Winde (Eb)
R: zwiefacher
M: 23/44
L: 1/8
K: Eb
|: "Eb"E2E[FD] [GE][AF] | [B4G] [B2G] \
| "Ab"[c2A][c2A] "Eb"[B4G] | "Ab"[c2A][c2A] "Eb"[B4G] \
| "Bb7"[A3F] [AF] [F2D] | "Eb"[G4E] E2 \
| "Bb7"[F2D][F2D] "Eb"[E4E] | "Bb7"[F2D][F2D] "Eb"[E4E] :|
|: "Bb7"[B3D] [AD] [F2D] | "Eb"[G4E] [B2G] \
| "Ab"[c2A][e2c] "Eb"[B4G] | "Ab"[c2A][e2c] "Eb"[B4G] \
| "Bb7"[B3D] [AD] [F2D] | "Eb"[G4E] E2 \
| "Bb7"[F2D][F2D] "Eb"[E4E] |1 "Bb7"[F2D][F2D] "Eb"[E4E] :|2 "Bb7"[B2D][d2A] "Eb"[e4G] ||
%%sep 2 1 500
